src/svg/alphabet/Odieresis-214.svg

<?xml version="1.0" standalone="no"?>
<!DOCTYPE svg PUBLIC "-//W3C//DTD SVG 1.1//EN" "http://www.w3.org/Graphics/SVG/1.1/DTD/svg11.dtd" >
<svg xmlns="http://www.w3.org/2000/svg" xmlns:xlink="http://www.w3.org/1999/xlink" version="1.1" viewBox="-10 0 722 1000">
   <path fill="currentColor"
d="M296 -56c15 0 27 12 27 27s-12 27 -27 27s-27 -12 -27 -27s12 -27 27 -27zM416 -56c15 0 27 12 27 27s-12 27 -27 27s-27 -12 -27 -27s12 -27 27 -27zM356 67c170 0 295 141 295 354s-125 354 -295 354s-295 -141 -295 -354s125 -354 295 -354zM356 99
c-151 0 -259 132 -259 322s108 322 259 322s259 -132 259 -322s-108 -322 -259 -322z" />
</svg>

<svg xmlns="http://www.w3.org/2000/svg" viewBox="-10 0 722 1000"><path fill="currentColor" d="M296-56c15 0 27 12 27 27S311-2 296-2s-27-12-27-27 12-27 27-27zm120 0c15 0 27 12 27 27S431-2 416-2s-27-12-27-27 12-27 27-27zM356 67c170 0 295 141 295 354S526 775 356 775 61 634 61 421 186 67 356 67zm0 32C205 99 97 231 97 421s108 322 259 322 259-132 259-322S507 99 356 99z"/></svg>
